src/sources/forus-platform/resources/_platform-common/assets/img/features/icons/auth-2-fa/icon-3.svg

<svg width="59" height="58" viewBox="0 0 59 58" fill="none" xmlns="http://www.w3.org/2000/svg">
    <rect x="0.5" width="58" height="58" rx="8" fill="#F7F9FC"/>
    <path d="M45.5 36.3697V18.5625C45.5 18.0447 45.0802 17.625 44.5625 17.625H40.3125C39.7947 17.625 39.375 18.0447 39.375 18.5625V36.3697H45.5Z" fill="#0A33C1"/>
    <path d="M39.375 36.2633V36.375C39.375 36.563 39.4315 36.7467 39.5373 36.9022L41.6623 40.0272C41.8368 40.2839 42.1271 40.4375 42.4375 40.4375C42.7479 40.4375 43.0382 40.2839 43.2127 40.0272L45.3377 36.9022C45.4434 36.7467 45.5 36.5631 45.5 36.375V36.2633H39.375Z" fill="#D4D9DD"/>
    <path d="M44.5625 17.625H42.4375V36.3697H45.5V18.5625C45.5 18.0447 45.0803 17.625 44.5625 17.625Z" fill="#315EFD"/>
    <path opacity="0.4" d="M42.4375 36.2633V40.4375C42.7479 40.4375 43.0382 40.2839 43.2127 40.0272L45.3377 36.9022C45.4434 36.7467 45.5 36.5631 45.5 36.375V36.2633H42.4375Z" fill="#8CA3A6"/>
    <path d="M31.2187 20.5H19.4062C18.8622 20.5 18.4219 20.0807 18.4219 19.5625C18.4219 19.0443 18.8622 18.625 19.4062 18.625C19.9494 18.625 20.3906 18.2048 20.3906 17.6875V15.8125C20.3906 15.2943 20.8309 14.875 21.375 14.875H22.5276C22.9342 13.7837 24.0291 13 25.3125 13C26.5959 13 27.6908 13.7837 28.0974 14.875H29.25C29.7941 14.875 30.2344 15.2943 30.2344 15.8125V17.6875C30.2344 18.2048 30.6756 18.625 31.2187 18.625C31.7628 18.625 32.2031 19.0443 32.2031 19.5625C32.2031 20.0807 31.7628 20.5 31.2187 20.5Z" fill="#092DAA"/>
    <path d="M36.1406 14.875H32.0218C32.1321 15.1697 32.2031 15.4822 32.2031 15.8125V16.9102C33.349 17.2974 34.1719 18.3403 34.1719 19.5625C34.1719 21.1134 32.8472 22.375 31.2188 22.375H19.4062C17.7778 22.375 16.4531 21.1134 16.4531 19.5625C16.4531 18.3403 17.276 17.2975 18.4219 16.9102V15.8125C18.4219 15.4822 18.4929 15.1697 18.6032 14.875H14.4844C13.9403 14.875 13.5 15.2943 13.5 15.8125V44.0625C13.5 44.5807 13.9403 45 14.4844 45H36.1406C36.6847 45 37.125 44.5807 37.125 44.0625V15.8125C37.125 15.2943 36.6847 14.875 36.1406 14.875Z" fill="#315EFD"/>
    <path d="M23.3943 25H19.443C19.1019 25 18.8256 25.2632 18.8256 25.588V29.3512C18.8256 29.6759 19.1019 29.9391 19.443 29.9391H23.3943C23.7353 29.9391 24.0117 29.6759 24.0117 29.3512V25.588C24.0117 25.2632 23.7353 25 23.3943 25ZM22.7769 28.7632H20.0603V26.176H22.7769V28.7632Z" fill="white"/>
    <path d="M23.3943 31.4679H19.443C19.1019 31.4679 18.8256 31.7311 18.8256 32.0559V35.8191C18.8256 36.1439 19.1019 36.4071 19.443 36.4071H23.3943C23.7353 36.4071 24.0117 36.1439 24.0117 35.8191V32.0559C24.0117 31.7311 23.7353 31.4679 23.3943 31.4679ZM22.7769 35.2311H20.0603V32.6439H22.7769V35.2311Z" fill="white"/>
    <path d="M23.3943 37.9359H19.443C19.1019 37.9359 18.8256 38.1991 18.8256 38.5238V42.287C18.8256 42.6118 19.1019 42.875 19.443 42.875H23.3943C23.7353 42.875 24.0117 42.6118 24.0117 42.287V38.5238C24.0117 38.1991 23.7353 37.9359 23.3943 37.9359ZM22.7769 41.699H20.0603V39.1118H22.7769V41.699Z" fill="white"/>
    <path d="M27.8134 29.2127C27.934 29.3275 28.092 29.3849 28.2499 29.3849C28.4079 29.3849 28.5659 29.3275 28.6865 29.2127L31.4739 26.558C31.7148 26.3285 31.7148 25.9562 31.4739 25.7265C31.2327 25.4968 30.8418 25.4968 30.6006 25.7265L28.2499 27.9652L27.313 27.0729C27.0718 26.8432 26.6811 26.8432 26.4397 27.0729C26.1988 27.3026 26.1988 27.6749 26.4397 27.9044L27.8134 29.2127Z" fill="white"/>
    <path d="M27.8134 35.6806C27.9292 35.7908 28.0862 35.8529 28.2499 35.8529C28.4137 35.8529 28.5707 35.7908 28.6865 35.6806L31.4739 33.0261C31.7148 32.7964 31.7148 32.4241 31.4739 32.1944C31.2327 31.965 30.8418 31.965 30.6006 32.1944L28.2499 34.4334L27.313 33.5411C27.0718 33.3114 26.6811 33.3114 26.4397 33.5411C26.1988 33.7705 26.1988 34.1428 26.4397 34.3725L27.8134 35.6806Z" fill="white"/>
    <path d="M28.9569 41.2371L29.9141 42.1485C30.0346 42.2633 30.1926 42.3208 30.3506 42.3208C30.5085 42.3208 30.6665 42.2633 30.7871 42.1485C31.0283 41.9188 31.0283 41.5465 30.7871 41.317L29.8301 40.4054L30.7871 39.4938C31.0283 39.2643 31.0283 38.892 30.7871 38.6623C30.5459 38.4327 30.1552 38.4327 29.9141 38.6623L28.9569 39.5737L27.9999 38.6623C27.7587 38.4329 27.368 38.4327 27.1266 38.6623C26.8857 38.892 26.8857 39.2643 27.1266 39.4938L28.0838 40.4054L27.1266 41.317C26.8857 41.5465 26.8857 41.9188 27.1266 42.1485C27.2472 42.2633 27.4054 42.3208 27.5634 42.3208C27.7213 42.3208 27.8793 42.2633 27.9999 42.1485L28.9569 41.2371Z" fill="white"/>
</svg>

<svg width="59" height="58" fill="none" xmlns="http://www.w3.org/2000/svg"><rect x=".5" width="58" height="58" rx="8" fill="#F7F9FC"/><path d="M45.5 36.37V18.563a.938.938 0 0 0-.938-.938h-4.25a.937.937 0 0 0-.937.938V36.37H45.5Z" fill="#0A33C1"/><path d="M39.375 36.263v.112c0 .188.056.372.162.527l2.125 3.125a.937.937 0 0 0 1.55 0l2.126-3.125a.938.938 0 0 0 .162-.527v-.112h-6.125Z" fill="#D4D9DD"/><path d="M44.563 17.625h-2.126V36.37H45.5V18.563a.937.937 0 0 0-.938-.938Z" fill="#315EFD"/><path opacity=".4" d="M42.438 36.263v4.175c.31 0 .6-.154.775-.41l2.125-3.126a.938.938 0 0 0 .162-.527v-.112h-3.063Z" fill="#8CA3A6"/><path d="M31.219 20.5H19.406c-.544 0-.984-.42-.984-.938s.44-.937.984-.937c.543 0 .985-.42.985-.938v-1.875c0-.518.44-.937.984-.937h1.153C22.934 13.784 24.029 13 25.313 13c1.283 0 2.378.784 2.784 1.875h1.153c.544 0 .984.42.984.938v1.874c0 .518.442.938.985.938.544 0 .984.42.984.938s-.44.937-.984.937Z" fill="#092DAA"/><path d="M36.14 14.875h-4.118c.11.295.181.607.181.938v1.097c1.146.387 1.969 1.43 1.969 2.652 0 1.551-1.325 2.813-2.953 2.813H19.406c-1.628 0-2.953-1.262-2.953-2.813 0-1.222.823-2.265 1.969-2.652v-1.098c0-.33.07-.642.181-.937h-4.119c-.544 0-.984.42-.984.938v28.25c0 .518.44.937.984.937h21.657c.544 0 .984-.42.984-.938v-28.25c0-.518-.44-.937-.984-.937Z" fill="#315EFD"/><path d="M23.394 25h-3.951c-.341 0-.617.263-.617.588v3.763c0 .325.276.588.617.588h3.951c.341 0 .618-.263.618-.588v-3.763c0-.325-.277-.588-.618-.588Zm-.617 3.763H20.06v-2.587h2.717v2.587ZM23.394 31.468h-3.951c-.341 0-.617.263-.617.588v3.763c0 .325.276.588.617.588h3.951c.341 0 .618-.263.618-.588v-3.763c0-.325-.277-.588-.618-.588Zm-.617 3.763H20.06v-2.587h2.717v2.587ZM23.394 37.936h-3.951c-.341 0-.617.263-.617.588v3.763c0 .325.276.588.617.588h3.951c.341 0 .618-.263.618-.588v-3.763c0-.325-.277-.588-.618-.588Zm-.617 3.763H20.06v-2.587h2.717v2.587ZM27.813 29.213c.121.114.279.172.437.172a.632.632 0 0 0 .436-.172l2.788-2.655a.569.569 0 0 0 0-.831.64.64 0 0 0-.873 0l-2.351 2.238-.937-.892a.64.64 0 0 0-.873 0 .569.569 0 0 0 0 .831l1.373 1.309ZM27.813 35.68c.116.11.273.173.437.173.164 0 .32-.062.436-.172l2.788-2.655a.569.569 0 0 0 0-.832.64.64 0 0 0-.873 0l-2.351 2.24-.937-.893a.64.64 0 0 0-.873 0 .569.569 0 0 0 0 .832l1.373 1.308ZM28.957 41.237l.957.911c.12.115.279.173.437.173a.632.632 0 0 0 .436-.172.568.568 0 0 0 0-.832l-.957-.912.957-.911a.568.568 0 0 0 0-.832.64.64 0 0 0-.873 0l-.957.912-.957-.912a.64.64 0 0 0-.873 0 .569.569 0 0 0 0 .832l.957.911-.957.912a.569.569 0 0 0 0 .831c.12.115.278.173.436.173a.632.632 0 0 0 .437-.172l.957-.912Z" fill="#fff"/></svg>
